X:1
T:Christ Church (Ouseley), 88.88.88
T:Christ Church (Ouseley), 88.88.88
T:Frederick Arthur Gore Ouseley, 1861
T:Public Domain Courtesy of the Cyber Hymnal™
C:Frederick Arthur Gore Ouseley, 1861
Z:Public Domain
Z:Courtesy of the Cyber Hymnal™
%%score ( 1 2 ) ( 3 4 )
L:1/8
Q:1/4=108
M:4/4
K:Eb
V:1 treble 
V:2 treble 
V:3 bass 
V:4 bass 
V:1
 [B,E]2 | [B,E]2 [EG]2 [FB]2 [Ac]2 | [GB]2 [EG]2 [DF]2 [EB]2 | [EB]2 [FA]2 [EG]2 [Ec]2 | %4
 [=A,=A]2 [DA]2 [B,G]2 [DG]2 | [EG]2 [B,F]2 [EG]2 [E=A]2 | B3 z c [Fd]2 [Fd]2 | %7
 [Ff]2 [Fd]2 [DB]2 [Fd]2 | [Ge]2 [Ec]2 [DB]2 [EB]2 | [Ec]2 [Ee]2 [Fd]2 G2 | A2 z [DF]2 [EG]2 x | %11
 A3 z B [EG]2 E2 | [EG]2 [DF]2 !fermata!E2 x |] %13
V:2
 x2 | x8 | x8 | x8 | x8 | x8 | D2 G2 x5 | x8 | x8 | x6 G2 | F3 (c2 E) x2 | F2 (F2 x E2) x2 | %12
 x4 E2 x |] %13
V:3
 G,2 | [E,G,]2 [C,C]2 [B,,D]2 [A,,E]2 | [E,E]2 [G,B,]2 B,2 [G,B,]2 | %3
 [C,E]2 [D,B,]2 [E,B,]2 (=A,G,) | [D,G,]2 [D,^F,]2 [G,,G,]2 [G,B,]2 | %5
 [E,B,]2 [D,B,]2 [E,B,]2 [C,C]2 | [G,B,]2 [E,B,]2 B,2 B,2 x | [=A,C]2 [F,A,]2 [G,B,]2 [D,B,]2 | %8
 [C,B,]2 [F,=A,]2 [B,,B,]2 [G,B,]2 | [A,E]2 [CE]2 B,2 [B,D]2 | [A,C]2 [A,C]2 [A,B,]2 [G,B,]2 | %11
 [F,C]2 [D,B,]2 [E,B,]2 [G,,B,]2 x | B,3 z G, !fermata![E,G,]2 |] %13
V:4
 G,2 | x8 | x4 B,2 x2 | x6 C,2 | x8 | x8 | x4 B,2 B,2 x | x8 | x8 | x4 B,2 x2 | x8 | x9 | %12
 B,,2 B,,2 x3 |] %13

